src/images/dashboard.svg

<svg height="17" viewBox="0 0 20 17" width="20" xmlns="http://www.w3.org/2000/svg"><g fill="none" fill-rule="evenodd"><g stroke="#fff"><path d="m18.5578125.92c-.8051608 0-.8051608 0-2.9911917 0-2.646321 0-2.646321 0-5.75293203 0-3.1837185 0-3.1837185 0-5.87201541 0-2.19287532 0-2.19287532 0-2.89948586 0-.17360551 0-.3221875.15549101-.3221875.35669903v14.44660197c0 .201208.14858199.356699.3221875.356699h17.515625c.1736055 0 .3221875-.155491.3221875-.356699 0-.5265303 0-.5265303 0-2.3334788 0-2.2337546 0-2.2337546 0-4.89431521 0-2.61800873 0-2.61800873 0-4.82936409 0-1.80470199 0-1.80470199 0-2.38944387 0-.20120802-.148582-.35669903-.3221875-.35669903z" fill-rule="nonzero" stroke-width=".84"/><path d="m1.5 5.5h17.1476816" stroke-linecap="square"/><path d="m6.5 1.5v3.57889255" stroke-linecap="square"/><path d="m13.5 1.5v3.57889255" stroke-linecap="square"/></g><path d="m10.6553955 10.8333554 2.3223877-2.33925734c.2440186-.24579109.6397705-.24579109.8839111 0 .2440186.24591405.2440186.64441775 0 .89033179l-2.7644043 2.78436175c-.2440185.2457911-.6398925.2456681-.8839111 0l-1.24108887-1.250104-1.95007322 1.9642384c-.24414062.2457911-.63977053.2457911-.88391115 0-.24401853-.245914-.24401853-.6445407 0-.8903318l2.39208984-2.4094658c.24401856-.2457911.64001466-.24566812.88391113 0z" fill="#fff" fill-rule="nonzero"/></g></svg>

<?xml version="1.0" encoding="UTF-8"?>
<svg width="20px" height="17px" viewBox="0 0 20 17" version="1.1" xmlns="http://www.w3.org/2000/svg" xmlns:xlink="http://www.w3.org/1999/xlink">
    <!-- Generator: Sketch 54.1 (76490) - https://sketchapp.com -->
    <title>dashboard</title>
    <desc>Created with Sketch.</desc>
    <g id="Symbols" stroke="none" stroke-width="1" fill="none" fill-rule="evenodd">
        <g id="side-bar-detail-after" transform="translate(-39.000000, -378.000000)">
            <g id="Group-4" transform="translate(39.000000, 378.000000)">
                <g id="dashboard">
                    <path d="M18.5578125,0.92 C17.7526517,0.92 17.7526517,0.92 15.5666208,0.92 C12.9202998,0.92 12.9202998,0.92 9.81368877,0.92 C6.62997027,0.92 6.62997027,0.92 3.94167336,0.92 C1.74879804,0.92 1.74879804,0.92 1.0421875,0.92 C0.868581989,0.92 0.72,1.07549101 0.72,1.27669903 L0.72,15.723301 C0.72,15.924509 0.868581989,16.08 1.0421875,16.08 L18.5578125,16.08 C18.731418,16.08 18.88,15.924509 18.88,15.723301 C18.88,15.1967707 18.88,15.1967707 18.88,13.3898222 C18.88,11.1560676 18.88,11.1560676 18.88,8.49550699 C18.88,5.87749826 18.88,5.87749826 18.88,3.6661429 C18.88,1.86144091 18.88,1.86144091 18.88,1.27669903 C18.88,1.07549101 18.731418,0.92 18.5578125,0.92 Z" id="Path" stroke="#FFFFFF" stroke-width="0.84" fill-rule="nonzero"></path>
                    <path d="M1.5,5.5 L18.6476816,5.5" id="Line" stroke="#FFFFFF" stroke-linecap="square"></path>
                    <path d="M6.5,1.5 L6.5,5.07889255" id="Line-2" stroke="#FFFFFF" stroke-linecap="square"></path>
                    <path d="M13.5,1.5 L13.5,5.07889255" id="Line-2-Copy" stroke="#FFFFFF" stroke-linecap="square"></path>
                    <path d="M10.6553955,10.8333554 L12.9777832,8.49409806 C13.2218018,8.24830697 13.6175537,8.24830697 13.8616943,8.49409806 C14.1057129,8.74001211 14.1057129,9.13851581 13.8616943,9.38442985 L11.09729,12.1687916 C10.8532715,12.4145827 10.4573975,12.4144597 10.2133789,12.1687916 L8.97229003,10.9186876 L7.02221681,12.882926 C6.77807619,13.1287171 6.38244628,13.1287171 6.13830566,12.882926 C5.89428713,12.637012 5.89428713,12.2383853 6.13830566,11.9925942 L8.5303955,9.5831284 C8.77441406,9.3373373 9.17041016,9.33746028 9.41430663,9.5831284 L10.6553955,10.8333554 Z" id="Path" fill="#FFFFFF" fill-rule="nonzero"></path>
                </g>
            </g>
        </g>
    </g>
</svg>
